icons-rebrand/svg/closed-captions-light.svg

<svg xmlns="http://www.w3.org/2000/svg" width="32" height="32" viewBox="0 0 32 32" fill="none"><path d="M25.0002 4H7.00024C5.80717 4.0013 4.66333 4.47583 3.8197 5.31946C2.97607 6.16309 2.50155 7.30693 2.50024 8.5V20.5C2.50411 21.2662 2.70224 22.0189 3.0761 22.6877C3.44995 23.3565 3.98732 23.9196 4.63794 24.3242C4.27444 24.9165 3.77366 25.4126 3.17794 25.7705C2.98503 25.846 2.81843 25.9762 2.69869 26.1453C2.57895 26.3143 2.51131 26.5147 2.50411 26.7217C2.50997 26.9375 2.61446 27.3457 3.24532 27.6484C3.84302 27.8972 4.48688 28.0158 5.13399 27.9961C6.76838 27.9861 8.35612 27.4502 9.66231 26.4678C9.88595 26.3096 10.1399 26.0889 10.4016 25.8594C10.7443 25.5596 11.382 25.001 11.6135 25H25.0002C26.1933 24.9987 27.3372 24.5242 28.1808 23.6805C29.0244 22.8369 29.4989 21.6931 29.5002 20.5V8.5C29.4989 7.30692 29.0244 6.16309 28.1808 5.31945C27.3372 4.47582 26.1933 4.0013 25.0002 4ZM28.5002 20.5C28.4991 21.4279 28.13 22.3175 27.4739 22.9736C26.8177 23.6298 25.9282 23.9989 25.0002 24H11.6067C10.8822 24.1573 10.2283 24.5456 9.74341 25.1064C9.50708 25.3134 9.27954 25.5147 9.07841 25.6562L9.06571 25.666C7.73139 26.6913 6.04727 27.1505 4.3772 26.9443C4.0986 26.9115 3.82863 26.8267 3.5813 26.6943C3.60376 26.6796 3.63013 26.663 3.66138 26.6455C4.53951 26.111 5.2587 25.3513 5.74438 24.4453C5.79411 24.3415 5.81823 24.2273 5.8147 24.1123C5.80188 24.0143 5.76468 23.9211 5.7065 23.8413C5.64832 23.7615 5.57102 23.6975 5.4817 23.6553C4.88961 23.367 4.39013 22.9186 4.03991 22.3609C3.68969 21.8032 3.50273 21.1585 3.50024 20.5V8.5C3.50137 7.57209 3.87048 6.6825 4.52661 6.02637C5.18275 5.37023 6.07233 5.00112 7.00024 5H25.0002C25.9282 5.00112 26.8177 5.37023 27.4739 6.02637C28.13 6.6825 28.4991 7.57209 28.5002 8.5V20.5Z M14.0247 16.6904C13.8226 16.8869 13.5829 17.0405 13.3199 17.1419C13.0569 17.2432 12.7761 17.2903 12.4944 17.2803C12.2029 17.2907 11.9126 17.2379 11.6435 17.1257C11.3743 17.0134 11.1325 16.8443 10.9348 16.6299C10.4181 16.0026 10.1607 15.2015 10.2151 14.3906C10.1716 13.6534 10.372 12.9225 10.7854 12.3105C10.9911 12.0399 11.2599 11.8236 11.5683 11.6806C11.8767 11.5376 12.2154 11.4723 12.5549 11.4902C13.0208 11.4765 13.4792 11.6093 13.8655 11.8701C14.0648 12.0126 14.2312 12.1961 14.3536 12.4084C14.4759 12.6207 14.5512 12.8567 14.5745 13.1006H15.6047C15.5609 12.4716 15.2698 11.8856 14.7952 11.4707C14.1861 10.9111 13.3816 10.613 12.5549 10.6406C11.7041 10.6047 10.8736 10.9066 10.2444 11.4805C9.87218 11.8635 9.58464 12.3206 9.40042 12.8219C9.21621 13.3232 9.13942 13.8577 9.17505 14.3906C9.12471 15.334 9.40019 16.2659 9.95532 17.0303C10.2584 17.4004 10.6445 17.6939 11.0823 17.8868C11.5201 18.0797 11.9972 18.1667 12.4749 18.1407C13.0355 18.1466 13.5887 18.0123 14.0842 17.75C14.5252 17.5216 14.9007 17.1845 15.1751 16.7705C15.4369 16.3775 15.5889 15.9217 15.6155 15.4502H14.5842C14.5657 15.9206 14.365 16.3653 14.0247 16.6904Z M21.2913 16.6904C21.0893 16.8869 20.8498 17.0404 20.5869 17.1418C20.3241 17.2431 20.0435 17.2903 19.7619 17.2803C19.4703 17.2907 19.1799 17.238 18.9106 17.1257C18.6412 17.0135 18.3993 16.8443 18.2014 16.6299C17.685 16.0025 17.4279 15.2014 17.4826 14.3906C17.4394 13.6536 17.6394 12.9228 18.052 12.3106C18.2579 12.0399 18.5268 11.8236 18.8354 11.6806C19.144 11.5376 19.4829 11.4723 19.8225 11.4903C20.288 11.4765 20.7461 11.6094 21.1321 11.8701C21.3315 12.0125 21.4981 12.1961 21.6206 12.4083C21.7431 12.6206 21.8186 12.8567 21.8421 13.1006H22.8714C22.8275 12.4717 22.5365 11.8857 22.0618 11.4707C21.4531 10.9111 20.6489 10.613 19.8225 10.6407C18.9717 10.6048 18.1412 10.9067 17.512 11.4805C17.1396 11.8635 16.8519 12.3205 16.6675 12.8218C16.4832 13.3232 16.4062 13.8577 16.4417 14.3906C16.3913 15.334 16.6668 16.2659 17.2219 17.0303C17.5252 17.4005 17.9114 17.694 18.3494 17.8869C18.7873 18.0799 19.2646 18.1668 19.7425 18.1406C20.3031 18.1466 20.8563 18.0123 21.3518 17.75C21.7923 17.5213 22.1674 17.1842 22.4417 16.7705C22.7043 16.3779 22.8565 15.9219 22.8821 15.4502H21.8518C21.8329 15.9207 21.6319 16.3654 21.2913 16.6904Z"/></svg>

<svg id="Layer_1" data-name="Layer 1" xmlns="http://www.w3.org/2000/svg" viewBox="0 0 32 32"><defs><style>.cls-1{fill:#0f0f0f}</style></defs><path class="cls-1" d="M28.181 5.319A4.508 4.508 0 0 0 25 4H7a4.505 4.505 0 0 0-4.5 4.5v12a4.529 4.529 0 0 0 2.138 3.824 4.327 4.327 0 0 1-1.46 1.447 1.06 1.06 0 0 0-.674.951c.006.216.11.624.741.926A4.549 4.549 0 0 0 5.134 28a7.613 7.613 0 0 0 4.528-1.528c.224-.158.478-.379.74-.609.342-.3.98-.858 1.212-.859H25a4.505 4.505 0 0 0 4.5-4.5V8.5a4.508 4.508 0 0 0-1.319-3.181ZM28.5 20.5A3.5 3.5 0 0 1 25 24H11.607a3.426 3.426 0 0 0-1.864 1.106 8.48 8.48 0 0 1-.665.55l-.012.01a6.406 6.406 0 0 1-4.689 1.278 2.242 2.242 0 0 1-.8-.25c.023-.014.049-.031.08-.048a5.765 5.765 0 0 0 2.083-2.2.724.724 0 0 0 .071-.333.585.585 0 0 0-.109-.271.594.594 0 0 0-.224-.186A3.524 3.524 0 0 1 3.5 20.5v-12A3.5 3.5 0 0 1 7 5h18a3.5 3.5 0 0 1 3.5 3.5Z"/><path class="cls-1" d="M14.025 16.69a2.084 2.084 0 0 1-1.531.59 2.021 2.021 0 0 1-1.559-.65 3.188 3.188 0 0 1-.72-2.239 3.364 3.364 0 0 1 .57-2.08 2.087 2.087 0 0 1 1.77-.821 2.224 2.224 0 0 1 1.311.38 1.711 1.711 0 0 1 .709 1.231h1.03a2.385 2.385 0 0 0-.81-1.63 3.151 3.151 0 0 0-2.24-.83 3.228 3.228 0 0 0-2.311.84 3.807 3.807 0 0 0-1.069 2.91 4.119 4.119 0 0 0 .78 2.639 3.042 3.042 0 0 0 2.52 1.111 3.366 3.366 0 0 0 1.609-.391 2.921 2.921 0 0 0 1.091-.979 2.654 2.654 0 0 0 .441-1.321h-1.032a1.811 1.811 0 0 1-.559 1.24ZM21.291 16.69a2.08 2.08 0 0 1-1.529.59 2.025 2.025 0 0 1-1.561-.65 3.186 3.186 0 0 1-.718-2.239 3.36 3.36 0 0 1 .569-2.08 2.087 2.087 0 0 1 1.771-.821 2.218 2.218 0 0 1 1.309.38 1.708 1.708 0 0 1 .71 1.231h1.029a2.384 2.384 0 0 0-.809-1.63 3.15 3.15 0 0 0-2.239-.83 3.226 3.226 0 0 0-2.311.84 3.8 3.8 0 0 0-1.07 2.91 4.113 4.113 0 0 0 .78 2.639 3.042 3.042 0 0 0 2.521 1.111 3.369 3.369 0 0 0 1.609-.391 2.941 2.941 0 0 0 1.09-.979 2.634 2.634 0 0 0 .44-1.321h-1.03a1.813 1.813 0 0 1-.561 1.24Z"/></svg>
